X: 1
T: Back Of The Haggard, The
M: 4/4
L: 1/8
R: hornpipe
K: Dmaj
(3ABc|:df (3fff ec A2|dcdB AF (3DEF|GFGB Afed|cd e2 dc B2|
dA (3AAA eA (3AAA|fefg af d2|GBAG FAEA|F2D2D2 (3ABc:|
|:dAFA DAFA|BG (3GGG DG (3GGG|gefd ed (3ddd|
cd e2 dcBc|Ad (3ddd ce (3eee|df (3fff eg (3ggg|fagf edce|d2 dc d2 (3ABc:|
